X:1
T:The Weaver
M:2/4
L:1/8
K:D
 B,/2B,/2| DD DF| ED B,D| DDD/2-E/2 F/2F/2| AE FA| B/2B/2 B/2B/2 d B/2B/2|\
 A F/2F/2 d3/2 F/2| F F/2F/2 F E/2E/2| D/2D/2 B,B, A,/2A,/2| DD D/2F/2 E/2E/2|\
 DB, B, z| DD D/2E/2 F/2G/2| AE F z| B3/2 c/2 dB| dF F E/2D/2| EE E/2E/2 F/2F/2|\
 ED B,||

